!!!COM:	Bach, Johann Sebastian
!!!CDT:	1685/02/21/-1750/07/28/
!!!OTL@@DE:	Gottes Sohn ist kommen
!!!SCT:	BWV 318
!!!PC#:	18
!!!AGN:	chorale
**harm	**kern	**kern	**kern	**kern
*	*ICvox	*ICvox	*ICvox	*ICvox
*	*Ibass	*Itenor	*Ialto	*Isoprn
*	*I"Bass	*I"Tenor	*I"Alto	*I"Soprano
*	*	*oclefC4	*oclefC3	*oclefC1
*	*clefF4	*clefGv2	*clefG2	*clefG2
*k[f#]	*k[f#]	*k[f#]	*k[f#]	*k[f#]
*G:	*G:	*G:	*G:	*G:
*M4/4	*M4/4	*M4/4	*M4/4	*M4/4
*met(c)	*met(c)	*met(c)	*met(c)	*met(c)
*MM100	*MM100	*MM100	*MM100	*MM100
=1-	=1-	=1-	=1-	=1-
I	4G	4B	4d	4g
IV	4C	4c	4e	4g
I	4GG	4d	4g	4b
viio6	4A	4c	4f#	4cc
=2	=2	=2	=2	=2
iii	8BL	8BL	8dL	8ddL
D:I64	8AJ	8dJ	8f#J	8ddJ
ii65	8GL	8dL	8bL	8eeL
V	8AJ	8c#	8aJ	8eeJ
I;	2D;	2d;	2f#;	2dd;
=3	=3	=3	=3	=3
G:ii	4A	4cnX	4a	4ee
V7	4D	4c	4a	4ff#
vi	4E	4B	4g	4gg
V6	4F#	4A	4a	4dd
=4	=4	=4	=4	=4
I	4G	4d	4g	4b
V/V	4A	4A	4e	4cc#
V;	2D;	2A;	2f#;	2dd;
=5	=5	=5	=5	=5
IV6	4E	4G	4e	4ccnX
V6	4F#	4A	4d	4a
I	4G	4G	4d	4b
IV6	4E	4G	4c	4cc
=6	=6	=6	=6	=6
V(64)	4D	4G	4d	4b
V7	4D	4F#	4c	4a
I;	2GG;	2G;	2B;	2g;
=7	=7	=7	=7	=7
D:I	4D	4A	4d	4f#
viio6	4E	4G	4c#	4g
I6	4F#	4d	4A	4a
IV	4G	4B	4d	4b
=8	=8	=8	=8	=8
V6	4C#	4E	4e	4a
V7	4AA	4A	4e	4g
I	4D	4A	4d	4f#
V7	4AA	4G	4c#	4e
=9	=9	=9	=9	=9
I;	1D;	1F#;	1A;	1d;
=10	=10	=10	=10	=10
G:I6	4BB	4G	4d	4g
IV	4C	4c	4e	4g
I	4G	4d	4g	4b
IV6	4E	4c	4g	4cc
=11	=11	=11	=11	=11
viio6/IV	4D	4B   	4f	4dd
IV	4CC	4c	4e 	4ee
I;	4G;	2B;	2g;	2dd;
=12	=12	=12	=12	=12
vi	4E	4B	4g 	4g
V6	4F#	4A	4d	4a
I	4G	4d	4B 	4b
IV	8EL	8eL	8GL	8ccL
vii%2	8EJ	8AJ	8f#J	8ccJ
=13	=13	=13	=13	=13
V(64)	4D	4B 	4g 	4b
V	4D	4d	4f#	4a
I;	2G;	2B;	2d;	2g;
==	==	==	==	==
*-	*-	*-	*-	*-
!!!YOR1: 371 vierstimmige Choralges&auml;nge von Johann Sebastian Bach, 
!!!YOR2: 4th ed. by Alfred D&ouml;rffel (Leipzig: Breitkopf und H&auml;rtel, 
!!!YOR2: c.1875). 178 pp. Plate "V.A.10".  reprint: J.S. Bach, 371 Four-Part 
!!!YOR4: Chorales (New York: Associated Music Publishers, Inc., c.1940).
!!!SMS: B&H, 4th ed, Alfred D&ouml;rffel, c.1875, plate V.A.10
!!!EED:  Craig Stuart Sapp
!!!EEV:  2009/05/22
